storage/app/icons/phosphoricons/regular/floppy-disk.svg

<svg xmlns="http://www.w3.org/2000/svg" fill="currentColor" viewBox="0 0 256 256"><path d="M219.31 72 184 36.69A15.86 15.86 0 0 0 172.69 32H48a16 16 0 0 0-16 16v160a16 16 0 0 0 16 16h160a16 16 0 0 0 16-16V83.31A15.86 15.86 0 0 0 219.31 72M168 208H88v-56h80Zm40 0h-24v-56a16 16 0 0 0-16-16H88a16 16 0 0 0-16 16v56H48V48h124.69L208 83.31ZM160 72a8 8 0 0 1-8 8H96a8 8 0 0 1 0-16h56a8 8 0 0 1 8 8"/></svg>

<svg xmlns="http://www.w3.org/2000/svg" viewBox="0 0 256 256" fill="currentColor"><path d="M219.31,72,184,36.69A15.86,15.86,0,0,0,172.69,32H48A16,16,0,0,0,32,48V208a16,16,0,0,0,16,16H208a16,16,0,0,0,16-16V83.31A15.86,15.86,0,0,0,219.31,72ZM168,208H88V152h80Zm40,0H184V152a16,16,0,0,0-16-16H88a16,16,0,0,0-16,16v56H48V48H172.69L208,83.31ZM160,72a8,8,0,0,1-8,8H96a8,8,0,0,1,0-16h56A8,8,0,0,1,160,72Z"/></svg>
